resources/haticons/SVG/phone_android.svg

<!-- Generated by IcoMoon.io -->
<svg version="1.1" xmlns="http://www.w3.org/2000/svg" width="24" height="24" viewBox="0 0 24 24">
<title>phone_android</title>
<path d="M17.25 18v-14.016h-10.5v14.016h10.5zM14.016 21v-0.984h-4.031v0.984h4.031zM15.984 0.984q1.219 0 2.109 0.891t0.891 2.109v16.031q0 1.219-0.891 2.109t-2.109 0.891h-7.969q-1.219 0-2.109-0.891t-0.891-2.109v-16.031q0-1.219 0.891-2.109t2.109-0.891h7.969z"></path>
</svg>

<svg xmlns="http://www.w3.org/2000/svg" width="24" height="24"><path d="M17.25 18V3.984H6.75V18h10.5zm-3.234 3v-.984H9.985V21h4.031zM15.984.984q1.219 0 2.109.891t.891 2.109v16.031q0 1.219-.891 2.109t-2.109.891H8.015q-1.219 0-2.109-.891t-.891-2.109V3.984q0-1.219.891-2.109T8.015.984h7.969z"/></svg>
